X: 21241
T: LORD EGLINTON'S HORNPIPE
R: hornpipe
B: K\"ohler's Violin Repository, v.2, 1885 p.124 #1
F: http://www.archive.org/details/klersviolinrepos02rugg
Z: 2012 John Chambers <jc:trillian.mit.edu>
M: C|
L: 1/8
K: Bb
((3FGA) |\
(B>A)B>F (D>F)B>F | (d>B)f>d (B>b)f>d | (c>g)e>c (A>e)c>A | (F>e)c>A F2G>A |
(B>A)B>F (D>F)B>F | (d>B)f>d (B>b)f>d | (c>g)e>c (A>f)c>A | B2d2 B2 :||: u(de) |
f=e_ec B(dfb) | gebg egbg | (f>d)b>f (d>f)B>d | (c>e)c>A (F>e)c>A |
(B>A)B>F (D>F)B>F | (d>B)f>d (B>b)f>d | (c>g)e>c (A>f)c>A | B2d2 B2 :|

%%sep 2 1 500

